X:418
T:Maid of the Mill, Brackley
M:6/8
L:1/8
K:G
|: D | GAG ABc | d2 c BAG | d2 c BAG | D2 A G2 :| 
z | Bcd dcB | ABc cBA | Bcd dcB | G3 F2 D | 
GBd dcB | ABc cAD | d2 c BAG | D2 A G2 || 

